X:0359
T:Love and Opportunity.
M:2/4
L:1/16
Q:1/4=120
I: :: ::
Z:Jack Campin * www.campin.me.uk * 2009
K:G
d2ef g2d2|dedcB4  |G2BG A2cA|dBAG GFED|\
d2ef g2d2|dedcB4  |e4   d2F2|G4   G4 ::
c2B2A2G2 |c2B2c2d2|e2f2g2e2 |e4   d4  |\
g3ab2a2  |g2f2g2d2|d2e2 dcBA|G4   G4 :|
<end>
<start>
